X:1
T: Lads of Leith
C:
R:Reel
Q: 232
K:Em
M:4/4
L:1/8
|:E2|B,E EF G2 FE|A,D DE F2 ED|GF E^D EF GA|Be dc B2 E2|
B,E EF G2 FE|A,D DE F2 ED|GF E^D EF GA|Be dc B2 B2|
eB B1/2B1/2B gf ed|Ad fa gf ed|eB B1/2B1/2B gf ed|gb ag gf e^d|
eB B1/2B1/2B gf ed|Ad fa gf ed|gb ge fa fd|gf e^d e2:|
